src/img/sprite.svg

<svg aria-hidden="true" style="position:absolute;width:0;height:0;overflow:hidden" xmlns="http://www.w3.org/2000/svg"><defs>

<symbol id="icon-password" viewBox="0 0 32 32"><path fill="#fff" style="fill:var(--color1, #fff)" opacity=".4" d="M24 10.667h-1.333V8c0-3.68-2.987-6.667-6.667-6.667S9.333 4.32 9.333 8v2.667H8a2.675 2.675 0 0 0-2.667 2.667v13.333c0 1.467 1.2 2.667 2.667 2.667h16c1.467 0 2.667-1.2 2.667-2.667V13.334c0-1.467-1.2-2.667-2.667-2.667zm-8 12c-1.467 0-2.667-1.2-2.667-2.667s1.2-2.667 2.667-2.667c1.467 0 2.667 1.2 2.667 2.667s-1.2 2.667-2.667 2.667zm4.133-12h-8.267V8c0-2.28 1.853-4.133 4.133-4.133S20.132 5.72 20.132 8v2.667z"/></symbol>

<symbol id="icon-email" viewBox="0 0 32 32"><path fill="#fff" style="fill:var(--color1, #fff)" opacity=".4" d="M26.667 5.333H5.334A2.663 2.663 0 0 0 2.681 8l-.013 16c0 1.467 1.2 2.667 2.667 2.667h21.333c1.467 0 2.667-1.2 2.667-2.667V8c0-1.467-1.2-2.667-2.667-2.667zm0 5.334L16 17.334 5.333 10.667V8L16 14.667 26.667 8v2.667z"/></symbol>

<symbol id="icon-user" viewBox="0 0 32 32"><path fill="#fff" style="fill:var(--color1, #fff)" opacity=".4" d="M16 20c-4.227 0-7.986 2.041-10.379 5.208-.515.682-.773 1.022-.764 1.483.006.356.23.805.51 1.025.362.284.865.284 1.869.284h17.527c1.004 0 1.507 0 1.869-.284.28-.22.503-.669.51-1.025.008-.461-.249-.801-.764-1.483C23.985 22.041 20.226 20 15.999 20zM16 16a6 6 0 1 0 0-12 6 6 0 0 0 0 12z"/></symbol>

<symbol id="icon-close-btn" viewBox="0 0 32 32"><path fill="none" stroke="#fbfbfb" style="stroke:var(--color2, #fbfbfb)" stroke-width="1.778" d="m1.778 1.778 28.444 28.444M1.778 30.222 30.222 1.778"/></symbol>

<symbol id="icon-arrow-down" viewBox="0 0 32 32"><path fill="none" stroke="#fbfbfb" style="stroke:var(--color2, #fbfbfb)" stroke-width="1.6" d="M30.4 8.8 16 23.2 1.6 8.8"/></symbol>

<symbol id="icon-arrow-up" viewBox="0 0 32 32"><path fill="none" stroke="#fbfbfb" style="stroke:var(--color2, #fbfbfb)" stroke-width="1.6" d="M30.4 23.2 16 8.8 1.6 23.2"/></symbol>

<symbol id="icon-minus" viewBox="0 0 32 32"><path fill="none" stroke="#fff" style="stroke:var(--color1, #fff)" stroke-width="3.2" d="M0 16h32"/></symbol>

<symbol id="icon-calendar" viewBox="0 0 32 32"><path fill="#734aef" style="fill:var(--color3, #734aef)" d="M11.2 14.4H8v3.2h3.2v-3.2zm6.4 0h-3.2v3.2h3.2v-3.2zm6.4 0h-3.2v3.2H24v-3.2zm3.2-11.2h-1.6V0h-3.2v3.2H9.6V0H6.4v3.2H4.8a3.185 3.185 0 0 0-3.184 3.2L1.6 28.8A3.2 3.2 0 0 0 4.8 32h22.4c1.76 0 3.2-1.44 3.2-3.2V6.4c0-1.76-1.44-3.2-3.2-3.2zm0 25.6H4.8V11.2h22.4v17.6z"/></symbol>

<symbol id="icon-plus" viewBox="0 0 32 32"><path fill="none" stroke="#fbfbfb" style="stroke:var(--color2, #fbfbfb)" stroke-width="3.2" d="M16 0v32M0 16h32"/></symbol>

<symbol id="icon-edit-pen" viewBox="0 0 32 32"><path fill="none" stroke="#fff" style="stroke:var(--color1, #fff)" stroke-linejoin="round" stroke-linecap="round" stroke-width="2.56" d="m23.467 13.511-4.978-4.978M4.178 27.823l4.212-.468c.515-.057.772-.086 1.012-.164.213-.069.416-.167.604-.29.211-.139.394-.322.76-.688L27.201 9.779a3.52 3.52 0 1 0-4.978-4.978L5.789 21.235c-.366.366-.549.549-.688.76a2.49 2.49 0 0 0-.29.604c-.078.24-.106.498-.164 1.012l-.468 4.212z"/></symbol>

<symbol id="icon-exit" viewBox="0 0 32 32">
<path fill="#fff" style="fill: var(--color1, #fff)" opacity="0.6" d="M20.051 23.237h2.499v4.997c0 2.067-1.681 3.748-3.748 3.748h-15.054c-2.066 0-3.748-1.681-3.748-3.748v-24.486c0-2.066 1.681-3.748 3.748-3.748h15.054c2.067 0 3.748 1.681 3.748 3.748v4.997h-2.499v-4.997c0-0.689-0.56-1.249-1.249-1.249h-15.054c-0.689 0-1.249 0.561-1.249 1.249v24.486c0 0.689 0.561 1.249 1.249 1.249h15.054c0.689 0 1.249-0.561 1.249-1.249v-4.997zM26.111 10.102l-1.767 1.767 2.873 2.874h-16.161v2.499h16.161l-2.873 2.873 1.767 1.767 5.889-5.889-5.889-5.89z"></path>
</symbol>

<symbol id="icon-statistic" viewBox="0 0 32 32"><path fill="#fff" style="fill:var(--color1, #fff)" opacity=".4" d="M3.556 0h24.889a3.556 3.556 0 0 1 3.556 3.556v24.889a3.556 3.556 0 0 1-3.556 3.556H3.556A3.556 3.556 0 0 1 0 28.445V3.556A3.556 3.556 0 0 1 3.556 0zm22.626 13.63c1.244 0 2.263-1.067 2.263-2.37s-1.018-2.37-2.263-2.37c-1.244 0-2.263 1.067-2.263 2.37 0 .213.023.415.079.604l-4.016 4.219c-.181-.059-.385-.083-.588-.083s-.407.024-.588.083l-2.885-3.022c.057-.19.079-.403.079-.616 0-1.304-1.018-2.37-2.263-2.37s-2.263 1.067-2.263 2.37c0 .213.023.427.079.616l-5.159 5.393a1.848 1.848 0 0 0-.577-.083c-1.244 0-2.263 1.067-2.263 2.37s1.018 2.37 2.263 2.37 2.263-1.067 2.263-2.37a2.12 2.12 0 0 0-.079-.604l5.147-5.404c.181.059.385.083.588.083s.407-.024.588-.083l2.885 3.022c-.057.19-.079.403-.079.616 0 1.304 1.018 2.37 2.263 2.37s2.263-1.067 2.263-2.37c0-.213-.023-.427-.079-.616l4.027-4.207c.181.059.373.083.577.083z"/></symbol>

<symbol id="icon-home" viewBox="0 0 32 32"><path fill="#734aef" style="fill:var(--color3, #734aef)" d="M3.556 0A3.556 3.556 0 0 0 0 3.556v24.889a3.556 3.556 0 0 0 3.556 3.556h24.889a3.556 3.556 0 0 0 3.556-3.556V3.556A3.556 3.556 0 0 0 28.445 0H3.556zm10.311 17.987v6.902H8.534v-9.203h-3.2L16.001 5.333l10.667 10.353h-3.2v9.203h-5.333v-6.902h-4.267z"/></symbol>

<symbol id="icon-logo-mob" viewBox="0 0 32 32"><path fill="#ffc727" style="fill:var(--color4, #ffc727)" d="M21.609 4.741c-2.137-.534-4.274-1.603-5.876-3.205-1.603 1.603-3.739 2.671-5.876 3.205.534 4.808 2.137 8.013 5.876 10.684 3.739-2.671 5.876-5.876 5.876-10.684z"/><path fill="#fbfbfb" style="fill:var(--color2, #fbfbfb)" d="M19.472 24.631 4.514 7.002v8.547l11.752 13.355 3.205-4.274zM21.075 23.029l6.41-7.479V7.537l-10.15 11.752 3.739 3.739zM21.609 25.7v4.808l5.876-6.945v-4.808L21.609 25.7zM10.391 25.7l-5.876-6.945v4.808l5.876 6.945V25.7z"/></symbol>

<symbol id="icon-Vector-beetween-logo" viewBox="0 0 2 32">
<path fill="none" stroke="#fff" style="stroke: var(--color1, #fff)" stroke-linejoin="miter" stroke-linecap="butt" stroke-miterlimit="4" stroke-width="1.0667" d="M1.067 0v32"></path>
</symbol>

<symbol id="icon-logo-deskt-tab" viewBox="0 0 32 32"><path fill="#ffc727" style="fill:var(--color4, #ffc727)" d="M21.94 4.396c-2.263-.566-4.526-1.698-6.223-3.397-1.697 1.698-3.96 2.83-6.223 3.397.566 5.095 2.263 8.491 6.223 11.322 3.96-2.831 6.223-6.227 6.223-11.322z"/><path fill="#fbfbfb" style="fill:var(--color2, #fbfbfb)" d="M19.677 25.474 3.837 6.793v9.057l12.446 14.152 3.394-4.529zM21.374 23.776l6.789-7.925V7.36L17.414 19.814l3.96 3.963zM21.94 26.606v5.095l6.223-7.359v-5.095l-6.223 7.359zM10.06 26.606l-6.223-7.359v5.095l6.223 7.359v-5.095z"/></symbol></defs></svg>

<svg aria-hidden="true" style="position:absolute;width:0;height:0;overflow:hidden" xmlns="http://www.w3.org/2000/svg"><defs>

<symbol id="icon-password" viewBox="0 0 32 32"><path fill="#fff" style="fill:var(--color1, #fff)" opacity=".4" d="M24 10.667h-1.333V8c0-3.68-2.987-6.667-6.667-6.667S9.333 4.32 9.333 8v2.667H8a2.675 2.675 0 0 0-2.667 2.667v13.333c0 1.467 1.2 2.667 2.667 2.667h16c1.467 0 2.667-1.2 2.667-2.667V13.334c0-1.467-1.2-2.667-2.667-2.667zm-8 12c-1.467 0-2.667-1.2-2.667-2.667s1.2-2.667 2.667-2.667c1.467 0 2.667 1.2 2.667 2.667s-1.2 2.667-2.667 2.667zm4.133-12h-8.267V8c0-2.28 1.853-4.133 4.133-4.133S20.132 5.72 20.132 8v2.667z"/></symbol>

<symbol id="icon-email" viewBox="0 0 32 32"><path fill="#fff" style="fill:var(--color1, #fff)" opacity=".4" d="M26.667 5.333H5.334A2.663 2.663 0 0 0 2.681 8l-.013 16c0 1.467 1.2 2.667 2.667 2.667h21.333c1.467 0 2.667-1.2 2.667-2.667V8c0-1.467-1.2-2.667-2.667-2.667zm0 5.334L16 17.334 5.333 10.667V8L16 14.667 26.667 8v2.667z"/></symbol>

<symbol id="icon-user" viewBox="0 0 32 32"><path fill="#fff" style="fill:var(--color1, #fff)" opacity=".4" d="M16 20c-4.227 0-7.986 2.041-10.379 5.208-.515.682-.773 1.022-.764 1.483.006.356.23.805.51 1.025.362.284.865.284 1.869.284h17.527c1.004 0 1.507 0 1.869-.284.28-.22.503-.669.51-1.025.008-.461-.249-.801-.764-1.483C23.985 22.041 20.226 20 15.999 20zM16 16a6 6 0 1 0 0-12 6 6 0 0 0 0 12z"/></symbol>

<symbol id="icon-close-btn" viewBox="0 0 32 32"><path fill="none" stroke="#fbfbfb" style="stroke:var(--color2, #fbfbfb)" stroke-width="1.778" d="m1.778 1.778 28.444 28.444M1.778 30.222 30.222 1.778"/></symbol>

<symbol id="icon-arrow-down" viewBox="0 0 32 32"><path fill="none" stroke="#fbfbfb" style="stroke:var(--color2, #fbfbfb)" stroke-width="1.6" d="M30.4 8.8 16 23.2 1.6 8.8"/></symbol>

<symbol id="icon-arrow-up" viewBox="0 0 32 32"><path fill="none" stroke="#fbfbfb" style="stroke:var(--color2, #fbfbfb)" stroke-width="1.6" d="M30.4 23.2 16 8.8 1.6 23.2"/></symbol>

<symbol id="icon-minus" viewBox="0 0 32 32"><path fill="none" stroke="#fff" style="stroke:var(--color1, #fff)" stroke-width="3.2" d="M0 16h32"/></symbol>

<symbol id="icon-calendar" viewBox="0 0 32 32"><path fill="#734aef" style="fill:var(--color3, #734aef)" d="M11.2 14.4H8v3.2h3.2v-3.2zm6.4 0h-3.2v3.2h3.2v-3.2zm6.4 0h-3.2v3.2H24v-3.2zm3.2-11.2h-1.6V0h-3.2v3.2H9.6V0H6.4v3.2H4.8a3.185 3.185 0 0 0-3.184 3.2L1.6 28.8A3.2 3.2 0 0 0 4.8 32h22.4c1.76 0 3.2-1.44 3.2-3.2V6.4c0-1.76-1.44-3.2-3.2-3.2zm0 25.6H4.8V11.2h22.4v17.6z"/></symbol>

<symbol id="icon-plus" viewBox="0 0 32 32"><path fill="none" stroke="#fbfbfb" style="stroke:var(--color2, #fbfbfb)" stroke-width="3.2" d="M16 0v32M0 16h32"/></symbol>

<symbol id="icon-edit-pen" viewBox="0 0 32 32"><path fill="none" stroke="#fff" style="stroke:var(--color1, #fff)" stroke-linejoin="round" stroke-linecap="round" stroke-width="2.56" d="m23.467 13.511-4.978-4.978M4.178 27.823l4.212-.468c.515-.057.772-.086 1.012-.164.213-.069.416-.167.604-.29.211-.139.394-.322.76-.688L27.201 9.779a3.52 3.52 0 1 0-4.978-4.978L5.789 21.235c-.366.366-.549.549-.688.76a2.49 2.49 0 0 0-.29.604c-.078.24-.106.498-.164 1.012l-.468 4.212z"/></symbol>

<symbol id="icon-exit" viewBox="0 0 32 32"><path fill="#fff" style="fill:var(--color1, #fff)" opacity=".6" d="M20.051 23.237h2.499v4.997a3.752 3.752 0 0 1-3.748 3.748H3.748A3.752 3.752 0 0 1 0 28.234V3.748A3.752 3.752 0 0 1 3.748 0h15.054a3.752 3.752 0 0 1 3.748 3.748v4.997h-2.499V3.748a1.25 1.25 0 0 0-1.249-1.249H3.748a1.25 1.25 0 0 0-1.249 1.249v24.486a1.25 1.25 0 0 0 1.249 1.249h15.054a1.25 1.25 0 0 0 1.249-1.249v-4.997zm6.06-13.135-1.767 1.767 2.873 2.874H11.056v2.499h16.161l-2.873 2.873 1.767 1.767L32 15.993l-5.889-5.89z"/></symbol>

<symbol id="icon-statistic" viewBox="0 0 32 32"><path fill="#fff" style="fill:var(--color1, #fff)" opacity=".4" d="M3.556 0h24.889a3.556 3.556 0 0 1 3.556 3.556v24.889a3.556 3.556 0 0 1-3.556 3.556H3.556A3.556 3.556 0 0 1 0 28.445V3.556A3.556 3.556 0 0 1 3.556 0zm22.626 13.63c1.244 0 2.263-1.067 2.263-2.37s-1.018-2.37-2.263-2.37c-1.244 0-2.263 1.067-2.263 2.37 0 .213.023.415.079.604l-4.016 4.219c-.181-.059-.385-.083-.588-.083s-.407.024-.588.083l-2.885-3.022c.057-.19.079-.403.079-.616 0-1.304-1.018-2.37-2.263-2.37s-2.263 1.067-2.263 2.37c0 .213.023.427.079.616l-5.159 5.393a1.848 1.848 0 0 0-.577-.083c-1.244 0-2.263 1.067-2.263 2.37s1.018 2.37 2.263 2.37 2.263-1.067 2.263-2.37a2.12 2.12 0 0 0-.079-.604l5.147-5.404c.181.059.385.083.588.083s.407-.024.588-.083l2.885 3.022c-.057.19-.079.403-.079.616 0 1.304 1.018 2.37 2.263 2.37s2.263-1.067 2.263-2.37c0-.213-.023-.427-.079-.616l4.027-4.207c.181.059.373.083.577.083z"/></symbol>

<symbol id="icon-home" viewBox="0 0 32 32"><path fill="#734aef" style="fill:var(--color3, #734aef)" d="M3.556 0A3.556 3.556 0 0 0 0 3.556v24.889a3.556 3.556 0 0 0 3.556 3.556h24.889a3.556 3.556 0 0 0 3.556-3.556V3.556A3.556 3.556 0 0 0 28.445 0H3.556zm10.311 17.987v6.902H8.534v-9.203h-3.2L16.001 5.333l10.667 10.353h-3.2v9.203h-5.333v-6.902h-4.267z"/></symbol>

<symbol id="icon-logo-mob" viewBox="0 0 32 32"><path fill="#ffc727" style="fill:var(--color4, #ffc727)" d="M21.609 4.741c-2.137-.534-4.274-1.603-5.876-3.205-1.603 1.603-3.739 2.671-5.876 3.205.534 4.808 2.137 8.013 5.876 10.684 3.739-2.671 5.876-5.876 5.876-10.684z"/><path fill="#fbfbfb" style="fill:var(--color2, #fbfbfb)" d="M19.472 24.631 4.514 7.002v8.547l11.752 13.355 3.205-4.274zM21.075 23.029l6.41-7.479V7.537l-10.15 11.752 3.739 3.739zM21.609 25.7v4.808l5.876-6.945v-4.808L21.609 25.7zM10.391 25.7l-5.876-6.945v4.808l5.876 6.945V25.7z"/></symbol>

<symbol id="icon-logo-deskt-tab" viewBox="0 0 32 32"><path fill="#ffc727" style="fill:var(--color4, #ffc727)" d="M21.94 4.396c-2.263-.566-4.526-1.698-6.223-3.397-1.697 1.698-3.96 2.83-6.223 3.397.566 5.095 2.263 8.491 6.223 11.322 3.96-2.831 6.223-6.227 6.223-11.322z"/><path fill="#fbfbfb" style="fill:var(--color2, #fbfbfb)" d="M19.677 25.474 3.837 6.793v9.057l12.446 14.152 3.394-4.529zM21.374 23.776l6.789-7.925V7.36L17.414 19.814l3.96 3.963zM21.94 26.606v5.095l6.223-7.359v-5.095l-6.223 7.359zM10.06 26.606l-6.223-7.359v5.095l6.223 7.359v-5.095z"/></symbol></defs></svg>
